X: 28349
T: Muineira De Cangas
R: jig
M: 6/8
K: Dmajor
|:DFA|dcd cBA|c3 AcA|c3 AcA|B2A DFA|
dcd cBA|c3 AcA|cBA BAG|1 F3 DFA:|2 F3 FGA||
|:BGB GBG|AFA FAF|GEF GAB|B2A FGA|
BGB GBG|AFA FAF|GEG EGE|1 F3 FGA:|2 F3 DFA||

